src/lib/packages/icons/src/assets/filled/chat-check-alt.svg

<svg width="24" height="24" viewBox="0 0 24 24" fill="none" xmlns="http://www.w3.org/2000/svg">
<path d="M12.001 3C7.031 3 3.00197 7.02902 3.00197 11.999C3.00197 13.339 3.30205 14.619 3.83205 15.758C4.04205 16.198 4.04211 16.708 3.89211 17.178L3.05202 19.678C2.79202 20.458 3.54204 21.208 4.32204 20.948L6.82204 20.108C7.29204 19.958 7.80196 19.958 8.24196 20.168C9.38196 20.698 10.662 20.998 12.002 20.998C16.972 20.998 21.001 16.969 21.001 11.999C21 7.02902 16.971 3 12.001 3ZM15.553 10.53L11.553 14.53C11.407 14.676 11.215 14.75 11.023 14.75C10.831 14.75 10.6389 14.677 10.4929 14.53L8.49294 12.53C8.19994 12.237 8.19994 11.762 8.49294 11.469C8.78594 11.176 9.26098 11.176 9.55398 11.469L11.0239 12.939L14.4939 9.46899C14.7869 9.17599 15.262 9.17599 15.555 9.46899C15.846 9.76199 15.846 10.238 15.553 10.53Z" fill="currentColor"/>
</svg>

<svg xmlns="http://www.w3.org/2000/svg" width="24" height="24" fill="none"><path fill="currentColor" d="M12.001 3a9 9 0 0 0-8.999 8.999c0 1.34.3 2.62.83 3.759.21.44.21.95.06 1.42l-.84 2.5c-.26.78.49 1.53 1.27 1.27l2.5-.84c.47-.15.98-.15 1.42.06 1.14.53 2.42.83 3.76.83A8.999 8.999 0 1 0 12.001 3Zm3.552 7.53-4 4a.748.748 0 0 1-1.06 0l-2-2a.75.75 0 1 1 1.061-1.061l1.47 1.47 3.47-3.47a.75.75 0 1 1 1.059 1.061Z"/></svg>
